contributed-vectors/bhoppro.svg

<svg width="192" height="192" viewBox="0 0 192 192" fill="none" xmlns="http://www.w3.org/2000/svg">
<path d="M162 20H30C24.4772 20 20 24.4772 20 30V162C20 167.523 24.4772 172 30 172H162C167.523 172 172 167.523 172 162V30C172 24.4772 167.523 20 162 20Z" fill="#56595B"/>
<path d="M101.038 51.3749C99.8455 54.5187 99.6985 56.3265 100.288 59.6246H96.1632C91.8485 62.528 89.5949 64.9788 89.0383 68.9993V77.249H86.4133C85.1045 77.5994 84.6251 77.9351 84.1633 78.7489V87.7486C84.309 88.6844 84.4589 89.1826 84.9133 89.9986V99.7482C84.5689 100.544 84.4034 101.034 84.1633 101.998V117.373H80.7883L75.5384 119.248C74.7735 120.638 74.3167 121.854 73.6634 121.497C72.392 121.24 71.2668 121.55 68.7884 122.622C67.3761 122.739 66.9596 123.308 66.9135 125.247C66.8797 126.473 66.6721 126.93 65.7885 127.122C61.8881 127.693 60.2162 128.845 57.9136 131.997C56.2633 132.375 55.8613 132.956 56.0386 134.622L59.4135 137.247C60.0777 140.245 60.543 141.568 62.0385 141.372C63.7827 137.372 65.9452 135.16 71.0384 131.247C73.7978 133.73 75.6334 132.186 78.9134 129.372L82.6633 128.997C82.9089 127.77 83.5765 126.921 85.2883 125.247C88.4166 125.526 89.7663 125.612 91.2882 124.122H94.2882C95.0003 121.7 95.1727 120.073 96.5382 118.123L95.4132 116.998C97.0835 115.69 97.6632 114.373 99.5382 112.498L101.038 113.623L101.788 113.248C104.339 115.272 105.33 116.723 106.663 119.623L101.788 124.497L96.1632 127.872C92.5147 127.84 91.5766 128.441 91.6632 130.497L93.5382 132.747L93.9132 135.747L97.2882 141.747C97.9523 144.492 98.6868 145.253 101.038 144.372C101.46 141.932 101.422 140.611 100.663 138.372L102.538 133.122L107.788 130.122C108.333 130.786 108.361 130.963 109.288 130.872C113.413 127.497 116.413 127.122 123.163 122.622V120.373C122.449 118.909 121.779 117.839 120.538 116.623C117.658 108.476 116.606 106.411 111.913 101.998V97.8733L114.538 97.4983L116.413 93.7484V84.7487L113.788 82.8738L114.913 81.3739C122.413 86.2487 127.288 86.6237 131.413 79.4989L131.038 76.499C132.538 76.499 132.382 76.1326 132.538 74.9991V70.1242L136.288 65.6244L135.913 63.7495L134.413 62.2495C136.15 61.7812 136.824 61.3519 136.288 59.6246L131.788 59.9996C131.692 54.8041 130.419 52.1862 126.163 48C125.985 53.6906 127.288 57.7497 129.538 59.9996V61.1245C126.869 65.5487 126.03 68.1722 125.788 73.1241L122.038 75.749C120.745 70.2552 119.829 67.2664 117.538 62.2495C114.306 61.5967 113.413 60.3746 116.788 58.1247V53.2498C115.305 50.9069 113.966 49.7662 110.788 48H105.913L101.038 51.3749Z" fill="white"/>
</svg>

<svg xmlns="http://www.w3.org/2000/svg" width="192" height="192" fill="none"><path fill="#56595B" d="M162 20H30c-5.523 0-10 4.477-10 10v132c0 5.523 4.477 10 10 10h132c5.523 0 10-4.477 10-10V30c0-5.523-4.477-10-10-10Z"/><path fill="#fff" d="M101.038 51.375c-1.192 3.144-1.34 4.952-.75 8.25h-4.125c-4.314 2.903-6.568 5.354-7.125 9.374v8.25h-2.625c-1.308.35-1.788.686-2.25 1.5v9c.146.935.296 1.434.75 2.25v9.75c-.344.795-.51 1.285-.75 2.249v15.375h-3.375l-5.25 1.875c-.764 1.39-1.221 2.606-1.875 2.249-1.271-.257-2.396.053-4.875 1.125-1.412.117-1.828.686-1.874 2.625-.034 1.226-.242 1.683-1.126 1.875-3.9.571-5.572 1.723-7.874 4.875-1.65.378-2.053.959-1.875 2.625l3.374 2.625c.665 2.998 1.13 4.321 2.626 4.125 1.744-4 3.906-6.212 9-10.125 2.759 2.483 4.594.939 7.874-1.875l3.75-.375c.246-1.227.913-2.076 2.625-3.75 3.129.279 4.478.365 6-1.125h3c.712-2.422.885-4.049 2.25-5.999l-1.125-1.125c1.67-1.308 2.25-2.625 4.125-4.5l1.5 1.125.75-.375c2.551 2.024 3.542 3.475 4.875 6.375l-4.875 4.874-5.625 3.375c-3.648-.032-4.586.569-4.5 2.625l1.875 2.25.375 3 3.375 6c.664 2.745 1.399 3.506 3.75 2.625.422-2.44.384-3.761-.375-6l1.875-5.25 5.25-3c.545.664.573.841 1.5.75 4.125-3.375 7.125-3.75 13.875-8.25v-2.249c-.714-1.464-1.384-2.534-2.625-3.75-2.88-8.147-3.932-10.212-8.625-14.625v-4.125l2.625-.375 1.875-3.75v-9l-2.625-1.874 1.125-1.5c7.5 4.875 12.375 5.25 16.5-1.875l-.375-3c1.5 0 1.344-.366 1.5-1.5v-4.875l3.75-4.5-.375-1.874-1.5-1.5c1.737-.469 2.411-.898 1.875-2.625l-4.5.375c-.096-5.196-1.369-7.814-5.625-12-.178 5.69 1.125 9.75 3.375 12v1.124c-2.669 4.425-3.508 7.048-3.75 12l-3.75 2.625c-1.293-5.494-2.209-8.483-4.5-13.5-3.232-.652-4.125-1.874-.75-4.124V53.25c-1.483-2.343-2.822-3.484-6-5.25h-4.875l-4.875 3.375Z"/></svg>
